assets/img/facebook-icon.svg

<svg xmlns="http://www.w3.org/2000/svg" width="11" height="20" fill="none"><path fill="#58546A" d="M7 11.5h2.5l1-4H7v-2c0-1.03 0-2 2-2h1.5V.14C10.174.097 8.943 0 7.643 0 4.928 0 3 1.657 3 4.7v2.8H0v4h3V20h4z"/></svg>

<svg width="11" height="20" viewBox="0 0 11 20" fill="none" xmlns="http://www.w3.org/2000/svg">
<path d="M7 11.5H9.5L10.5 7.5H7V5.5C7 4.47 7 3.5 9 3.5H10.5V0.14C10.174 0.0970001 8.943 0 7.643 0C4.928 0 3 1.657 3 4.7V7.5H0V11.5H3V20H7V11.5Z" fill="#58546A"/>
</svg>
